X:174
T:Cuckold Come Out of the Amrey
Z:Jack Campin, http://www.campin.me.uk/
F:Jack Campin's Nine-Note Tunebook
% last edit 03-02-2013
S:Northumbrian Pipers Tune Book volume 1
M:C
L:1/16
Q:1/4=116
K:DDor
DEFD F3G  A3G  A2c2|C2C2 E3F  GEDC EFGE|
DEFD F3G  A3G  A2c2|G2ED c2E2 D4   A4 :|
c3A  F2c2 A2F2 ABcA|GFED C2G2 E2C2 EFGE|
cBAG FGAB c2F2 ABcA|G2FE c2E2 D4   A4 :|

